-----BEGIN PGP SIGNATURE-----
Version: GnuPG v2.0.22 (GNU/Linux)

iQGcBAABAgAGBQJqtkyIAAoJEAK7xNYf5VRDP3wL/iBXdMkwazxPmASdNuJ9B8n+
pTuGkv5bC8sORNYu8rN0ww214yWG3vNze5otuloRDHSEBPfFr213ww1dG5bt7PwT
MnpqS3j4aTDqbOQ/4d0I3/C1OLNmMf/qutYMvZ8S2zKXeY552RAWmt/5WeIhn1OI
5l11IbOr9wgYLqCVVRi1+DIRB55KNgiZmTwchzTYgJ/2lFA6Tk3tOXep1rndsQHs
aH4EYg2Oqg/KZwfWb7NMA/fhzuo5MYCLw+lQ3lU4akJij925lLnlxYZlfzsZ+Y0D
/+zzv8RiolvQLFnc63V9jWFomW3bCMcYLUi+sFBY2UFJ9bfZqXCa39ht483YoQcR
ow9MXvGl9Seq2sRMNezb5EpznuZnMdy+YihRMYA+VchLMLrT5JdCVP+DxMZm3laD
HydtY4Jf7hlDEBe+EEW/mg9UgantZZFpDqgMbMHYx0dVlg4XkTTsMaQj4FM0fTqm
vWEhzncaZXYu/yC775xzSZujfdfiOXo+vgI428y7NA==
=eqDG
-----END PGP SIGNATURE-----
